src/assets/img/icons/mask/icon-partner-quras.svg

<svg width="140" height="42" viewBox="0 0 140 42" fill="none" xmlns="http://www.w3.org/2000/svg">
<path d="M17.9661 0C27.9036 0 35.9321 7.94811 35.9321 17.786C35.9321 19.3422 35.7076 20.8429 35.3146 22.2881C38.8517 23.8443 41.2659 27.3459 41.2659 31.4034C41.2659 36.9059 36.7182 41.408 31.1599 41.408C26.893 41.408 23.2998 38.8513 21.7839 35.183C20.5487 35.4052 19.2574 35.5719 17.9661 35.5719C8.02859 35.5719 0 27.6239 0 17.786C0 7.94811 8.02859 0 17.9661 0ZM31.1599 25.2894C27.7351 25.2894 24.9841 28.0129 24.9841 31.4034C24.9841 34.7939 27.7351 37.5173 31.1599 37.5173C34.5848 37.5173 37.3358 34.7939 37.3358 31.4034C37.3358 28.0129 34.5848 25.2894 31.1599 25.2894ZM17.9661 3.8351C10.2182 3.8351 3.93008 10.0602 3.93008 17.7304C3.93008 25.4006 10.2182 31.6258 17.9661 31.6258C19.0328 31.6258 20.0434 31.5145 21.054 31.2922C21.1101 25.7897 25.6017 21.3987 31.1599 21.3432H31.4968C31.8336 20.176 32.0021 19.0088 32.0021 17.7304C32.0021 10.0602 25.7139 3.8351 17.9661 3.8351ZM50.2489 9.67111C51.4278 9.67111 52.4946 10.7827 52.4946 12.4502V21.5654C52.4946 22.7883 52.8876 23.7887 53.6174 24.5668C54.3474 25.345 55.358 25.7897 56.5369 25.7897C57.7159 25.7897 58.7265 25.4006 59.4565 24.5668C60.2424 23.7332 60.6355 22.7883 60.6355 21.5654V12.5058C60.6355 10.8383 61.5338 9.72669 62.825 9.72669H63.8356C63.948 9.72669 64.1164 9.78227 64.2287 9.89343C64.3409 10.0046 64.3971 10.1158 64.3971 10.2825V21.8434C64.3971 23.9554 63.6672 25.7897 62.1514 27.2904C60.6355 28.7911 58.7827 29.5136 56.5931 29.5136C54.4035 29.5136 52.5507 28.7911 51.0348 27.2904C49.4628 25.7341 48.6768 23.8999 48.6768 21.7878V10.2269C48.6768 10.1158 48.733 9.94901 48.8452 9.83785C48.9575 9.72669 49.0697 9.67111 49.2383 9.67111H50.2489ZM132.5 9.33766C134.577 9.33766 136.43 9.94905 138.114 11.1718C138.227 11.2274 138.339 11.3942 138.395 11.6165C138.451 11.8388 138.395 12.0056 138.339 12.1167L137.272 13.673C136.992 14.1176 136.655 14.2288 136.261 14.0065C134.634 13.006 133.342 12.4502 132.331 12.4502C131.602 12.4502 130.984 12.6725 130.535 13.0616C130.086 13.4507 129.861 13.8954 129.861 14.3956C129.861 15.0625 130.142 15.6183 130.647 16.063C131.152 16.5632 131.995 17.0079 133.174 17.4526C133.96 17.786 134.69 18.0639 135.251 18.3975C135.813 18.7309 136.43 19.12 137.048 19.6202C137.666 20.1204 138.171 20.7318 138.508 21.3987C138.845 22.0658 139.013 22.8439 139.013 23.7332C139.013 25.2339 138.395 26.5123 137.216 27.6239C136.037 28.7355 134.465 29.2357 132.556 29.2357C131.489 29.2357 130.479 29.069 129.524 28.7911C128.57 28.4575 127.896 28.1797 127.447 27.9017C127.166 27.7906 126.773 27.5128 126.493 27.2348C126.212 26.9568 126.212 26.679 126.38 26.401L127.391 24.6781C127.503 24.5114 127.672 24.4001 127.896 24.3445C128.121 24.3445 128.233 24.3445 128.345 24.4557L128.457 24.5114C128.57 24.5669 128.682 24.6781 128.794 24.7336C128.907 24.7892 129.075 24.9003 129.244 25.0116C129.412 25.1227 129.637 25.2339 129.805 25.345C129.973 25.4561 130.198 25.5674 130.423 25.623C130.647 25.7341 130.928 25.7897 131.096 25.9008C131.321 25.9564 131.545 26.0121 131.77 26.0676C131.995 26.1232 132.276 26.1232 132.444 26.1232C133.174 26.1232 133.792 25.9008 134.24 25.5118C134.745 25.0672 134.971 24.5669 134.971 24.0111C134.971 23.3441 134.69 22.7327 134.127 22.1769C133.566 21.6211 132.668 21.1209 131.434 20.6762C129.861 20.0649 128.57 19.2311 127.615 18.3418C126.661 17.397 126.156 16.1741 126.156 14.6734C126.156 13.2839 126.717 12.0056 127.784 10.9495C128.851 9.89347 130.423 9.33766 132.5 9.33766ZM84.7214 9.67111C86.4056 9.67111 87.8654 10.2269 89.0444 11.4497C90.2234 12.6169 90.8409 14.0065 90.8409 15.6739C90.8409 16.9522 90.448 18.0639 89.7181 19.0644C88.9883 20.0649 87.9777 20.7874 86.6863 21.2876L90.5603 28.3464C90.6725 28.5131 90.6725 28.7355 90.5603 28.9022C90.448 29.0689 90.2795 29.1802 90.055 29.1802H87.1355C86.9109 29.1802 86.7987 29.0689 86.6863 28.9022L82.9247 21.5099H79.8368V28.6242C79.8368 28.7355 79.7806 28.9022 79.6684 29.0133C79.556 29.1245 79.4437 29.1802 79.2753 29.1802H76.6927C76.5242 29.1802 76.4119 29.1245 76.2997 29.0133C76.2436 28.9022 76.1874 28.7911 76.1874 28.6242V10.2269C76.1874 10.0602 76.2436 9.94901 76.3558 9.83785C76.4681 9.72669 76.5805 9.67111 76.7489 9.67111H84.7214ZM108.863 9.44875C109.088 9.44875 109.256 9.55991 109.312 9.72667L117.958 28.4575C118.071 28.6242 118.071 28.7911 117.958 28.9578C117.846 29.1245 117.678 29.18 117.509 29.18H115.039C114.702 29.18 114.421 29.0133 114.197 28.6242L112.793 25.6228H104.372L103.024 28.6242C102.856 29.0133 102.575 29.18 102.182 29.18H99.824C99.5994 29.18 99.4871 29.1245 99.3749 28.9578C99.2626 28.7911 99.2626 28.6242 99.3749 28.4575L108.077 9.72667C108.189 9.50433 108.358 9.44875 108.582 9.44875H108.863ZM108.639 16.3964H108.582L105.831 22.5103H111.446L108.639 16.3964ZM84.4406 13.0616H79.8368V18.5642H84.4406C85.1704 18.5642 85.8442 18.2862 86.4056 17.7304C86.9671 17.1746 87.2477 16.5075 87.2477 15.7295C87.2477 15.007 86.9671 14.3399 86.4056 13.8397C85.8442 13.3394 85.2267 13.0616 84.4406 13.0616Z" fill="#4D4D5D"/>
<path d="M17.9661 0C27.9036 0 35.9321 7.94811 35.9321 17.786C35.9321 19.3422 35.7076 20.8429 35.3146 22.2881C38.8517 23.8443 41.2659 27.3459 41.2659 31.4034C41.2659 36.9059 36.7182 41.408 31.1599 41.408C26.893 41.408 23.2998 38.8513 21.7839 35.183C20.5487 35.4052 19.2574 35.5719 17.9661 35.5719C8.02859 35.5719 0 27.6239 0 17.786C0 7.94811 8.02859 0 17.9661 0ZM31.1599 25.2894C27.7351 25.2894 24.9841 28.0129 24.9841 31.4034C24.9841 34.7939 27.7351 37.5173 31.1599 37.5173C34.5848 37.5173 37.3358 34.7939 37.3358 31.4034C37.3358 28.0129 34.5848 25.2894 31.1599 25.2894ZM17.9661 3.8351C10.2182 3.8351 3.93008 10.0602 3.93008 17.7304C3.93008 25.4006 10.2182 31.6258 17.9661 31.6258C19.0328 31.6258 20.0434 31.5145 21.054 31.2922C21.1101 25.7897 25.6017 21.3987 31.1599 21.3432H31.4968C31.8336 20.176 32.0021 19.0088 32.0021 17.7304C32.0021 10.0602 25.7139 3.8351 17.9661 3.8351ZM50.2489 9.67111C51.4278 9.67111 52.4946 10.7827 52.4946 12.4502V21.5654C52.4946 22.7883 52.8876 23.7887 53.6174 24.5668C54.3474 25.345 55.358 25.7897 56.5369 25.7897C57.7159 25.7897 58.7265 25.4006 59.4565 24.5668C60.2424 23.7332 60.6355 22.7883 60.6355 21.5654V12.5058C60.6355 10.8383 61.5338 9.72669 62.825 9.72669H63.8356C63.948 9.72669 64.1164 9.78227 64.2287 9.89343C64.3409 10.0046 64.3971 10.1158 64.3971 10.2825V21.8434C64.3971 23.9554 63.6672 25.7897 62.1514 27.2904C60.6355 28.7911 58.7827 29.5136 56.5931 29.5136C54.4035 29.5136 52.5507 28.7911 51.0348 27.2904C49.4628 25.7341 48.6768 23.8999 48.6768 21.7878V10.2269C48.6768 10.1158 48.733 9.94901 48.8452 9.83785C48.9575 9.72669 49.0697 9.67111 49.2383 9.67111H50.2489ZM132.5 9.33766C134.577 9.33766 136.43 9.94905 138.114 11.1718C138.227 11.2274 138.339 11.3942 138.395 11.6165C138.451 11.8388 138.395 12.0056 138.339 12.1167L137.272 13.673C136.992 14.1176 136.655 14.2288 136.261 14.0065C134.634 13.006 133.342 12.4502 132.331 12.4502C131.602 12.4502 130.984 12.6725 130.535 13.0616C130.086 13.4507 129.861 13.8954 129.861 14.3956C129.861 15.0625 130.142 15.6183 130.647 16.063C131.152 16.5632 131.995 17.0079 133.174 17.4526C133.96 17.786 134.69 18.0639 135.251 18.3975C135.813 18.7309 136.43 19.12 137.048 19.6202C137.666 20.1204 138.171 20.7318 138.508 21.3987C138.845 22.0658 139.013 22.8439 139.013 23.7332C139.013 25.2339 138.395 26.5123 137.216 27.6239C136.037 28.7355 134.465 29.2357 132.556 29.2357C131.489 29.2357 130.479 29.069 129.524 28.7911C128.57 28.4575 127.896 28.1797 127.447 27.9017C127.166 27.7906 126.773 27.5128 126.493 27.2348C126.212 26.9568 126.212 26.679 126.38 26.401L127.391 24.6781C127.503 24.5114 127.672 24.4001 127.896 24.3445C128.121 24.3445 128.233 24.3445 128.345 24.4557L128.457 24.5114C128.57 24.5669 128.682 24.6781 128.794 24.7336C128.907 24.7892 129.075 24.9003 129.244 25.0116C129.412 25.1227 129.637 25.2339 129.805 25.345C129.973 25.4561 130.198 25.5674 130.423 25.623C130.647 25.7341 130.928 25.7897 131.096 25.9008C131.321 25.9564 131.545 26.0121 131.77 26.0676C131.995 26.1232 132.276 26.1232 132.444 26.1232C133.174 26.1232 133.792 25.9008 134.24 25.5118C134.745 25.0672 134.971 24.5669 134.971 24.0111C134.971 23.3441 134.69 22.7327 134.127 22.1769C133.566 21.6211 132.668 21.1209 131.434 20.6762C129.861 20.0649 128.57 19.2311 127.615 18.3418C126.661 17.397 126.156 16.1741 126.156 14.6734C126.156 13.2839 126.717 12.0056 127.784 10.9495C128.851 9.89347 130.423 9.33766 132.5 9.33766ZM84.7214 9.67111C86.4056 9.67111 87.8654 10.2269 89.0444 11.4497C90.2234 12.6169 90.8409 14.0065 90.8409 15.6739C90.8409 16.9522 90.448 18.0639 89.7181 19.0644C88.9883 20.0649 87.9777 20.7874 86.6863 21.2876L90.5603 28.3464C90.6725 28.5131 90.6725 28.7355 90.5603 28.9022C90.448 29.0689 90.2795 29.1802 90.055 29.1802H87.1355C86.9109 29.1802 86.7987 29.0689 86.6863 28.9022L82.9247 21.5099H79.8368V28.6242C79.8368 28.7355 79.7806 28.9022 79.6684 29.0133C79.556 29.1245 79.4437 29.1802 79.2753 29.1802H76.6927C76.5242 29.1802 76.4119 29.1245 76.2997 29.0133C76.2436 28.9022 76.1874 28.7911 76.1874 28.6242V10.2269C76.1874 10.0602 76.2436 9.94901 76.3558 9.83785C76.4681 9.72669 76.5805 9.67111 76.7489 9.67111H84.7214ZM108.863 9.44875C109.088 9.44875 109.256 9.55991 109.312 9.72667L117.958 28.4575C118.071 28.6242 118.071 28.7911 117.958 28.9578C117.846 29.1245 117.678 29.18 117.509 29.18H115.039C114.702 29.18 114.421 29.0133 114.197 28.6242L112.793 25.6228H104.372L103.024 28.6242C102.856 29.0133 102.575 29.18 102.182 29.18H99.824C99.5994 29.18 99.4871 29.1245 99.3749 28.9578C99.2626 28.7911 99.2626 28.6242 99.3749 28.4575L108.077 9.72667C108.189 9.50433 108.358 9.44875 108.582 9.44875H108.863ZM108.639 16.3964H108.582L105.831 22.5103H111.446L108.639 16.3964ZM84.4406 13.0616H79.8368V18.5642H84.4406C85.1704 18.5642 85.8442 18.2862 86.4056 17.7304C86.9671 17.1746 87.2477 16.5075 87.2477 15.7295C87.2477 15.007 86.9671 14.3399 86.4056 13.8397C85.8442 13.3394 85.2267 13.0616 84.4406 13.0616Z" fill="url(#paint0_linear)" fill-opacity="0.4"/>
<defs>
<linearGradient id="paint0_linear" x1="69.5063" y1="0" x2="69.5063" y2="41.408" gradientUnits="userSpaceOnUse">
<stop stop-color="white"/>
<stop offset="1" stop-color="white" stop-opacity="0"/>
</linearGradient>
</defs>
</svg>

<svg xmlns="http://www.w3.org/2000/svg" width="140" height="42" fill="none"><path fill="#4D4D5D" d="M17.97 0c9.93 0 17.96 7.95 17.96 17.79 0 1.55-.22 3.05-.62 4.5a9.94 9.94 0 015.96 9.11c0 5.5-4.55 10-10.11 10-4.27 0-7.86-2.55-9.38-6.22a21.7 21.7 0 01-3.81.4A17.86 17.86 0 010 17.77C0 7.96 8.03 0 17.97 0zm13.19 25.29a6.13 6.13 0 00-6.18 6.11 6.13 6.13 0 006.18 6.12 6.13 6.13 0 006.18-6.12c0-3.39-2.76-6.11-6.18-6.11zM17.96 3.84A13.97 13.97 0 003.94 17.73c0 7.67 6.29 13.9 14.04 13.9 1.06 0 2.07-.12 3.08-.34.06-5.5 4.55-9.9 10.11-9.95h.34c.33-1.16.5-2.33.5-3.61 0-7.67-6.29-13.9-14.03-13.9zm32.29 5.83c1.18 0 2.24 1.11 2.24 2.78v9.12c0 1.22.4 2.22 1.13 3a3.91 3.91 0 002.92 1.22c1.18 0 2.19-.39 2.92-1.22a4.13 4.13 0 001.18-3V12.5c0-1.67.9-2.78 2.19-2.78h1c.12 0 .29.05.4.16a.5.5 0 01.17.4v11.55c0 2.12-.73 3.95-2.25 5.45a7.58 7.58 0 01-5.56 2.22 7.58 7.58 0 01-5.56-2.22 7.5 7.5 0 01-2.35-5.5V10.23a.6.6 0 01.17-.4.51.51 0 01.39-.16h1zm82.25-.33a9.3 9.3 0 015.61 1.83c.12.06.23.22.28.45a.7.7 0 01-.05.5l-1.07 1.55c-.28.45-.62.56-1 .34-1.64-1-2.93-1.56-3.94-1.56a2.7 2.7 0 00-1.8.61c-.44.4-.67.84-.67 1.34 0 .66.28 1.22.79 1.66.5.5 1.34.95 2.52 1.4.79.33 1.52.6 2.08.94.56.33 1.18.72 1.8 1.22.62.5 1.12 1.11 1.46 1.78.34.67.5 1.44.5 2.33a5.2 5.2 0 01-1.8 3.9c-1.17 1.1-2.75 1.6-4.65 1.6a10.8 10.8 0 01-3.04-.44c-.95-.33-1.62-.61-2.07-.89a3.3 3.3 0 01-.96-.67c-.28-.27-.28-.55-.11-.83l1.01-1.72a.82.82 0 01.5-.34c.23 0 .34 0 .45.12l.12.05c.11.06.22.17.33.22.12.06.28.17.45.28.17.11.4.22.56.33.17.12.4.23.62.28.23.11.5.17.68.28.22.06.44.11.67.17a3 3 0 00.67.05 2.7 2.7 0 001.8-.6c.5-.45.73-.95.73-1.5 0-.68-.28-1.29-.84-1.84a7.42 7.42 0 00-2.7-1.5 12 12 0 01-3.82-2.34 4.96 4.96 0 01-1.45-3.67c0-1.39.56-2.66 1.62-3.72 1.07-1.06 2.64-1.61 4.72-1.61zm-47.78.33c1.69 0 3.15.56 4.32 1.78a5.72 5.72 0 011.8 4.22 5.6 5.6 0 01-1.12 3.4 6.54 6.54 0 01-3.03 2.22l3.87 7.06a.5.5 0 010 .55.6.6 0 01-.5.28h-2.92c-.23 0-.34-.11-.45-.28l-3.77-7.39h-3.08v7.11a.6.6 0 01-.17.4.51.51 0 01-.4.16H76.7a.51.51 0 01-.39-.17c-.06-.1-.11-.22-.11-.39v-18.4a.5.5 0 01.17-.38.51.51 0 01.39-.17h7.97zm24.14-.22c.23 0 .4.11.45.28l8.65 18.73c.11.16.11.33 0 .5a.51.51 0 01-.45.22h-2.47c-.34 0-.62-.17-.84-.56l-1.4-3h-8.43l-1.35 3a.84.84 0 01-.84.56h-2.36c-.22 0-.33-.06-.45-.22a.41.41 0 010-.5l8.7-18.73c.12-.23.29-.28.51-.28h.28zm-.22 6.95h-.06l-2.75 6.11h5.62l-2.81-6.11zm-24.2-3.34h-4.6v5.5h4.6c.73 0 1.4-.27 1.97-.83.56-.56.84-1.22.84-2 0-.72-.28-1.39-.84-1.89a2.82 2.82 0 00-1.97-.78z"/><path fill="url(#paint0_linear)" fill-opacity=".4" d="M17.97 0c9.93 0 17.96 7.95 17.96 17.79 0 1.55-.22 3.05-.62 4.5a9.94 9.94 0 015.96 9.11c0 5.5-4.55 10-10.11 10-4.27 0-7.86-2.55-9.38-6.22a21.7 21.7 0 01-3.81.4A17.86 17.86 0 010 17.77C0 7.96 8.03 0 17.97 0zm13.19 25.29a6.13 6.13 0 00-6.18 6.11 6.13 6.13 0 006.18 6.12 6.13 6.13 0 006.18-6.12c0-3.39-2.76-6.11-6.18-6.11zM17.96 3.84A13.97 13.97 0 003.94 17.73c0 7.67 6.29 13.9 14.04 13.9 1.06 0 2.07-.12 3.08-.34.06-5.5 4.55-9.9 10.11-9.95h.34c.33-1.16.5-2.33.5-3.61 0-7.67-6.29-13.9-14.03-13.9zm32.29 5.83c1.18 0 2.24 1.11 2.24 2.78v9.12c0 1.22.4 2.22 1.13 3a3.91 3.91 0 002.92 1.22c1.18 0 2.19-.39 2.92-1.22a4.13 4.13 0 001.18-3V12.5c0-1.67.9-2.78 2.19-2.78h1c.12 0 .29.05.4.16a.5.5 0 01.17.4v11.55c0 2.12-.73 3.95-2.25 5.45a7.58 7.58 0 01-5.56 2.22 7.58 7.58 0 01-5.56-2.22 7.5 7.5 0 01-2.35-5.5V10.23a.6.6 0 01.17-.4.51.51 0 01.39-.16h1zm82.25-.33a9.3 9.3 0 015.61 1.83c.12.06.23.22.28.45a.7.7 0 01-.05.5l-1.07 1.55c-.28.45-.62.56-1 .34-1.64-1-2.93-1.56-3.94-1.56a2.7 2.7 0 00-1.8.61c-.44.4-.67.84-.67 1.34 0 .66.28 1.22.79 1.66.5.5 1.34.95 2.52 1.4.79.33 1.52.6 2.08.94.56.33 1.18.72 1.8 1.22.62.5 1.12 1.11 1.46 1.78.34.67.5 1.44.5 2.33a5.2 5.2 0 01-1.8 3.9c-1.17 1.1-2.75 1.6-4.65 1.6a10.8 10.8 0 01-3.04-.44c-.95-.33-1.62-.61-2.07-.89a3.3 3.3 0 01-.96-.67c-.28-.27-.28-.55-.11-.83l1.01-1.72a.82.82 0 01.5-.34c.23 0 .34 0 .45.12l.12.05c.11.06.22.17.33.22.12.06.28.17.45.28.17.11.4.22.56.33.17.12.4.23.62.28.23.11.5.17.68.28.22.06.44.11.67.17a3 3 0 00.67.05 2.7 2.7 0 001.8-.6c.5-.45.73-.95.73-1.5 0-.68-.28-1.29-.84-1.84a7.42 7.42 0 00-2.7-1.5 12 12 0 01-3.82-2.34 4.96 4.96 0 01-1.45-3.67c0-1.39.56-2.66 1.62-3.72 1.07-1.06 2.64-1.61 4.72-1.61zm-47.78.33c1.69 0 3.15.56 4.32 1.78a5.72 5.72 0 011.8 4.22 5.6 5.6 0 01-1.12 3.4 6.54 6.54 0 01-3.03 2.22l3.87 7.06a.5.5 0 010 .55.6.6 0 01-.5.28h-2.92c-.23 0-.34-.11-.45-.28l-3.77-7.39h-3.08v7.11a.6.6 0 01-.17.4.51.51 0 01-.4.16H76.7a.51.51 0 01-.39-.17c-.06-.1-.11-.22-.11-.39v-18.4a.5.5 0 01.17-.38.51.51 0 01.39-.17h7.97zm24.14-.22c.23 0 .4.11.45.28l8.65 18.73c.11.16.11.33 0 .5a.51.51 0 01-.45.22h-2.47c-.34 0-.62-.17-.84-.56l-1.4-3h-8.43l-1.35 3a.84.84 0 01-.84.56h-2.36c-.22 0-.33-.06-.45-.22a.41.41 0 010-.5l8.7-18.73c.12-.23.29-.28.51-.28h.28zm-.22 6.95h-.06l-2.75 6.11h5.62l-2.81-6.11zm-24.2-3.34h-4.6v5.5h4.6c.73 0 1.4-.27 1.97-.83.56-.56.84-1.22.84-2 0-.72-.28-1.39-.84-1.89a2.82 2.82 0 00-1.97-.78z"/><defs><linearGradient id="paint0_linear" x1="69.506" x2="69.506" y1="0" y2="41.408" gradientUnits="userSpaceOnUse"><stop stop-color="#fff"/><stop offset="1" stop-color="#fff" stop-opacity="0"/></linearGradient></defs></svg>
